src/icons/io.github.kolumni.Bazaar.Utilities.svg

<svg width="128" height="128" viewBox="0 0 128 128" fill="none" xmlns="http://www.w3.org/2000/svg">
<path d="M29.1431 8.13061V26.941L37.0716 28.1072V6.96436L29.1431 8.13061Z" fill="#ED333B"/>
<path d="M50.2856 3L37.2417 5.00666C36.4584 5.12724 35.7442 5.52415 35.2282 6.12558C34.7123 6.72702 34.4286 7.49327 34.4285 8.28571V26.7857C34.4286 27.5782 34.7123 28.3444 35.2282 28.9458C35.7442 29.5473 36.4584 29.9442 37.2417 30.0648L50.2856 32.0714H50.9463V3H50.2856Z" fill="#F66151"/>
<path d="M50.2856 3V32.0714V32.7321H119V32.0714V13.5714C119 10.7677 117.886 8.07883 115.904 6.0963C113.921 4.11377 111.232 3 108.429 3H50.2856Z" fill="#3584E4"/>
<path d="M9.41207 13.4638L16.5893 11.8918V23.1794L9.41207 21.6074C9.01749 21.521 8.65904 21.2534 8.40047 20.8523C8.14191 20.4512 8 19.9426 8 19.4169V15.6544C8 15.1287 8.14191 14.62 8.40047 14.2189C8.65904 13.8178 9.01749 13.5502 9.41207 13.4638Z" fill="#9A9996"/>
<path d="M29.1737 6.24877L18.5408 7.88419C17.8136 7.99605 17.1504 8.36455 16.6712 8.92301C16.1921 9.48147 15.9287 10.193 15.9287 10.9288V24.1431C15.9287 24.8789 16.1921 25.5905 16.6712 26.1489C17.1504 26.7074 17.8136 27.0759 18.5408 27.1877L29.1737 28.8232C29.4968 28.8729 29.8269 28.8521 30.1412 28.7623C30.4555 28.6725 30.7467 28.5158 30.9948 28.303C31.243 28.0901 31.4421 27.8261 31.5786 27.5291C31.7152 27.232 31.7859 26.909 31.7859 26.5821V8.48985C31.7859 8.16294 31.7152 7.8399 31.5786 7.54287C31.4421 7.24583 31.243 6.98184 30.9948 6.76897C30.7467 6.55611 30.4555 6.39941 30.1412 6.30962C29.8269 6.21983 29.4968 6.19907 29.1737 6.24877Z" fill="#F66151"/>
<path d="M59.1008 44.4159L59.213 44.6404C59.7235 45.6614 59.9893 46.7872 59.9893 47.9288C59.9893 49.0703 59.7235 50.1962 59.213 51.2172L59.1008 51.4416C59.0074 51.6284 58.9633 51.8359 58.9727 52.0445C58.9821 52.2531 59.0446 52.4559 59.1544 52.6335C59.2642 52.8111 59.4175 52.9577 59.5999 53.0594C59.7823 53.1611 59.9877 53.2145 60.1965 53.2145H71.4286V42.6431H60.1965C59.9877 42.6431 59.7823 42.6964 59.5999 42.7981C59.4175 42.8998 59.2642 43.0464 59.1544 43.2241C59.0446 43.4017 58.9821 43.6044 58.9727 43.813C58.9633 44.0216 59.0074 44.2292 59.1008 44.4159Z" fill="#F66151"/>
<path d="M50.2856 32.0715C50.2856 37.91 55.0186 42.643 60.8571 42.643H63.4999H64.8214C65.5512 42.643 66.1428 43.2346 66.1428 43.9644V51.893C66.1428 52.6228 65.5512 53.2144 64.8214 53.2144C64.4255 53.2144 64.2701 53.7278 64.5994 53.9474L70.3819 57.802L74.0714 92.8573V95.5001H87.2856V92.8573L92.5714 42.643V32.0715H50.2856Z" fill="#1C71D8"/>
<path d="M92.5714 32.0715C89.7677 32.0715 87.0788 33.1853 85.0963 35.1678C83.1138 37.1504 82 39.8392 82 42.643L87.2857 92.8573V95.5001H97.8571V92.8573L92.987 46.5853C92.9346 46.0879 92.9874 45.5851 93.1419 45.1094C93.2964 44.6338 93.5491 44.1959 93.8837 43.8242C94.2183 43.4524 94.6273 43.1552 95.0842 42.9517C95.5411 42.7482 96.0356 42.643 96.5357 42.643H108.429C114.267 42.643 119 37.91 119 32.0715H92.5714Z" fill="#1A5FB4"/>
<path d="M66.1429 92.8572C62.7941 92.857 59.6124 94.3197 57.4323 96.8615L48.4411 107.345C46.2206 109.934 45 113.232 45 116.643V119.286C45 122.205 47.3665 124.571 50.2857 124.571H100.5C103.419 124.571 105.786 122.205 105.786 119.286V111.357V98.1429C105.786 96.741 105.229 95.3966 104.238 94.4053C103.246 93.4141 101.902 92.8572 100.5 92.8572H66.1429Z" fill="#3584E4"/>
<path d="M70.382 57.8017L69.8099 57.4203L63.5 53.2141H71.4286V58.4998L70.382 57.8017Z" fill="#1C71D8"/>
<path d="M46.044 111.357C45.3638 113.037 45.0095 114.831 45 116.643V119.286C45 122.205 47.3665 124.571 50.2857 124.571H100.5C103.419 124.571 105.786 122.205 105.786 119.286V111.357H46.044Z" fill="#1A5FB4"/>
<path d="M72.9589 82.2858L70.3816 57.8015L70.3822 57.8019C72.1532 58.9483 73.6453 60.4765 74.749 62.2743C75.8527 64.0722 76.5402 66.0943 76.7611 68.1923L77.6913 77.0291C77.7611 77.6924 77.6907 78.3629 77.4847 78.9972C77.2787 79.6315 76.9416 80.2154 76.4954 80.7111C76.0492 81.2067 75.5038 81.603 74.8945 81.8743C74.2853 82.1456 73.6258 82.2858 72.9589 82.2858Z" fill="#1A5FB4"/>
<path d="M64.8214 36.0359H72.75C73.4821 36.0359 74.0714 36.6252 74.0714 37.3573C74.0714 38.0894 73.4821 38.6787 72.75 38.6787H64.8214C64.0894 38.6787 63.5 38.0894 63.5 37.3573C63.5 36.6252 64.0894 36.0359 64.8214 36.0359Z" fill="#1A5FB4"/>
<path d="M38.393 8.94653H46.3215C47.0536 8.94653 47.643 9.53589 47.643 10.268C47.643 11 47.0536 11.5894 46.3215 11.5894H38.393C37.6609 11.5894 37.0715 11 37.0715 10.268C37.0715 9.53589 37.6609 8.94653 38.393 8.94653Z" fill="#241F31" fill-opacity="0.344048"/>
<path d="M38.393 16.2144H46.3215C47.0536 16.2144 47.643 16.8037 47.643 17.5358C47.643 18.2679 47.0536 18.8572 46.3215 18.8572H38.393C37.6609 18.8572 37.0715 18.2679 37.0715 17.5358C37.0715 16.8037 37.6609 16.2144 38.393 16.2144Z" fill="#241F31" fill-opacity="0.344048"/>
<path d="M38.393 23.4822H46.3215C47.0536 23.4822 47.643 24.0715 47.643 24.8036C47.643 25.5357 47.0536 26.125 46.3215 26.125H38.393C37.6609 26.125 37.0715 25.5357 37.0715 24.8036C37.0715 24.0715 37.6609 23.4822 38.393 23.4822Z" fill="#241F31" fill-opacity="0.344048"/>
<path d="M19.8927 20.1787H27.8213C28.5534 20.1787 29.1427 20.7681 29.1427 21.5001C29.1427 22.2322 28.5534 22.8216 27.8213 22.8216H19.8927C19.1606 22.8216 18.5713 22.2322 18.5713 21.5001C18.5713 20.7681 19.1606 20.1787 19.8927 20.1787Z" fill="#241F31" fill-opacity="0.344048"/>
<path d="M19.8927 12.2502H27.8213C28.5534 12.2502 29.1427 12.8396 29.1427 13.5717C29.1427 14.3037 28.5534 14.8931 27.8213 14.8931H19.8927C19.1606 14.8931 18.5713 14.3037 18.5713 13.5717C18.5713 12.8396 19.1606 12.2502 19.8927 12.2502Z" fill="#241F31" fill-opacity="0.344048"/>
<path d="M113.714 14.2321C113.714 15.8092 113.088 17.3217 111.972 18.4368C110.857 19.552 109.345 20.1785 107.768 20.1785C106.191 20.1785 104.678 19.552 103.563 18.4368C102.448 17.3217 101.821 15.8092 101.821 14.2321C101.821 12.655 102.448 11.1425 103.563 10.0273C104.678 8.91214 106.191 8.28564 107.768 8.28564C109.345 8.28564 110.857 8.91214 111.972 10.0273C113.088 11.1425 113.714 12.655 113.714 14.2321Z" fill="#1C71D8"/>
</svg>

<svg xmlns="http://www.w3.org/2000/svg" width="128" height="128" fill="none" viewBox="0 0 128 128"><path fill="#ed333b" d="M29.143 8.13v18.811l7.929 1.166V6.964z"/><path fill="#f66151" d="M50.286 3 37.242 5.007a3.32 3.32 0 0 0-2.813 3.279v18.5a3.32 3.32 0 0 0 2.813 3.279l13.044 2.006h.66V3z"/><path fill="#3584e4" d="M50.286 3v29.732H119v-19.16A10.573 10.573 0 0 0 108.429 3z"/><path fill="#9a9996" d="m9.412 13.464 7.177-1.572v11.287l-7.177-1.572c-.395-.086-.753-.354-1.012-.755-.258-.4-.4-.91-.4-1.435v-3.763c0-.525.142-1.034.4-1.435.259-.401.617-.669 1.012-.755"/><path fill="#f66151" d="M29.174 6.249 18.54 7.884a3.08 3.08 0 0 0-2.612 3.045v13.214a3.08 3.08 0 0 0 2.612 3.045l10.633 1.635a2.267 2.267 0 0 0 2.612-2.24V8.49a2.266 2.266 0 0 0-2.612-2.241M59.1 44.416l.113.224a7.35 7.35 0 0 1 0 6.577l-.112.225a1.225 1.225 0 0 0 1.096 1.773h11.232V42.643H60.196a1.225 1.225 0 0 0-1.095 1.773"/><path fill="#1c71d8" d="M50.286 32.072c0 5.838 4.733 10.571 10.571 10.571h3.964c.73 0 1.322.592 1.322 1.321v7.929c0 .73-.592 1.321-1.322 1.321a.4.4 0 0 0-.222.733l5.783 3.855 3.69 35.055V95.5h13.214v-2.643l5.285-50.214V32.072z"/><path fill="#1a5fb4" d="M92.571 32.072A10.57 10.57 0 0 0 82 42.643l5.286 50.214V95.5h10.571v-2.643l-4.87-46.272a3.57 3.57 0 0 1 3.549-3.942h11.893c5.838 0 10.571-4.733 10.571-10.571z"/><path fill="#3584e4" d="M66.143 92.857c-3.349 0-6.53 1.463-8.71 4.005l-8.992 10.483A14.28 14.28 0 0 0 45 116.643v2.643a5.285 5.285 0 0 0 5.286 5.285H100.5a5.286 5.286 0 0 0 5.286-5.285V98.143a5.287 5.287 0 0 0-5.286-5.286z"/><path fill="#1c71d8" d="m70.382 57.802-.572-.382-6.31-4.206h7.929V58.5z"/><path fill="#1a5fb4" d="M46.044 111.357A14.3 14.3 0 0 0 45 116.643v2.643a5.285 5.285 0 0 0 5.286 5.285H100.5a5.286 5.286 0 0 0 5.286-5.285v-7.929zm26.915-29.071L70.382 57.8a14.14 14.14 0 0 1 6.38 10.391l.93 8.837a4.76 4.76 0 0 1-4.733 5.257m-8.138-46.249h7.929c.732 0 1.321.59 1.321 1.321 0 .732-.589 1.322-1.321 1.322h-7.929c-.732 0-1.321-.59-1.321-1.322s.59-1.321 1.321-1.321"/><path fill="#241f31" fill-opacity=".344" d="M38.393 8.947h7.929c.732 0 1.321.589 1.321 1.321s-.59 1.321-1.322 1.321h-7.928c-.732 0-1.322-.589-1.322-1.321s.59-1.321 1.322-1.321m0 7.267h7.929c.732 0 1.321.59 1.321 1.322s-.59 1.321-1.322 1.321h-7.928a1.32 1.32 0 0 1-1.322-1.321c0-.732.59-1.322 1.322-1.322m0 7.268h7.929c.732 0 1.321.59 1.321 1.322s-.59 1.321-1.322 1.321h-7.928a1.32 1.32 0 0 1-1.322-1.321c0-.732.59-1.322 1.322-1.322m-18.5-3.303h7.928c.732 0 1.322.59 1.322 1.321a1.32 1.32 0 0 1-1.322 1.322h-7.928c-.732 0-1.322-.59-1.322-1.322s.59-1.321 1.322-1.321m0-7.929h7.928c.732 0 1.322.59 1.322 1.322s-.59 1.321-1.322 1.321h-7.928a1.32 1.32 0 0 1-1.322-1.321c0-.732.59-1.322 1.322-1.322"/><path fill="#1c71d8" d="M113.714 14.232a5.943 5.943 0 0 1-5.946 5.947 5.947 5.947 0 1 1 5.946-5.947"/></svg>
